!!!ONB: MCCC : ILB0179_01 : Extracted Monophonic Melody
!!!COM: Beethoven, Ludwig van
!!!OPR: Piano Sonata No.18
!!!OMV: 1
!!!SCT: Op.31 No.3
!!!ODT: 1801///
**kern
*thru
*staff1
*Ipiano
*>A
*clefG2
*k[b-e-a-]
*E-:
*M3/4
*MM120
=1
8.cc
16f
4f
4r
=2
8.cc
16f
4f
4r
=3
4f
4f
4f
=4
2.g-
=5
4g-
4g-
4g-
=6
2.g
=7
8g
8f
16f
16g
16f
16e
8f
8g
=8
16e-
16f
16e-
16d
12e-
12f
12g
12a-
12b-
12cc
=9
12dd
12ee-
12ff
12ff#
12gg
12aa-
12aa
12bb-
12bb
=10
8.ccc
16ff
4ff
4r
=11
8.cc
16f
4f
4r
=12
4F
4F
4F
=13
2.G-
=14
4gg-
4gg-
4gg-
=15
2.gg
=16
8g
8f
16f
16g
16f
16e
8f
8g
=17
4e-
4r
4r
=18
8.eee-
16aa-
4aa-
4r
=19
8.ee-
16g
4g
4r
=20
16ee-
16f
8r
16ee-
16f
8r
16dd
16f
8r
=21
16ee-
16e-
8r
4r
4r
=22
4eee-
8aa-
8r
4r
=23
4ee-
8g
8r
4r
=24
16ee-
16f
8r
16ee-
16f
8r
16dd
16f
8r
=25
16e-
16f
16e-
16d
16e-
16f
16g
16a-
8b-
8g
=26
8f
8a-
8d
8f
8B-
8d
=27
16e-
16f
16e-
16d
16e-
16f
16g
16a-
16cc
16b-
16a-
16g
=28
8f
8a-
8d
8f
8B-
8d
=29
8e-
8g
8c
8e-
8A
8c
=30
8F
8A
8c
8e
8f
8A
=31
8B-
8d
8f
8a
8b-
8a
=32
8b-
8a
8b-
8a
8b-
8b-
=33
8.cc-
16f
4f
4r
=34
8.cc
16f
4f
4r
=35
4f
4f
4g-
=36
2.a-
=37
4ff
4ff
4gg-
=38
2.aa-
=39
4g
4g
4a-
=40
2.b-
=41
4gg
4gg
4aa-
=42
2.bb-
=43
4ddd-
4ee
4r
=44
4fff
4ff
4r
=45
4r
4r
8r
8ff
=46
4.bb-
16aa
16bb-
8ccc
8bb-
=47
4.ff
16gg
16ff
8ee-
8dd
=48
16ff#
16gg
8r
16ff#
16gg
8r
16dd
16ee-
8r
=49
16b
16cc
8r
4r
8r
8ccc
=50
4.eee-
16fff
16eee-
8ddd
8ccc
=51
8bb-
8aa
8gg
8ff
8ee-
8cc
=52
8b-
8dd
8g
8ee-
8a
8cc
=53
16b-
16d
16f
16e-
20d
20e-
20f
20g
20a
48b-
48a
48cc
48b-
48dd
48cc
48b-
48a
48g
48f
48g
48e-
=54
16d
16f
16e-
16d
16e-
16f
16g
16a
16b-
16a
16g
16f
=55
16g
16a
16b-
16cc
16dd
16cc
16b-
16a
16b-
16cc
16dd
16ee-
=56
16gg
16ff
16ee-
16dd
12ff
12ee-
12dd
16ee-
16ff
16gg
16aa
=57
4.bb-
16aa
16bb-
16aa
16bb-
16ccc
16bb-
=58
4.ff
16ee
16ff
16gg
16ff
16ee-
16dd
=59
16ff#
16gg
16ff#
16gg
16ff#
16gg
16ff#
16gg
16dd
16ee-
16dd
16ee-
=60
16b
16cc
16b
16cc
4r
8r
8ccc
=61
4.eee-
16ddd
16eee-
16fff
16eee-
16ddd
16ccc
=62
16bb-
16aa
16ddd
16ccc
16bb-
16aa
16gg
16ff
16ee-
16dd
16ee-
16cc[
=63
16cc]
16b-
8.dd
16g
8.ee-
16a
8cc
=64
8b-
8r
16G
16A
16B-
16c
16d
16e-
16f
16g
=65
2f
4e-
=66
16d
16r
8r
16g
16a
16b-
16cc
16dd
16ee-
16ff
16gg
=67
2ff
4ee-
=68
4dd
4cc
4b-
=69
4a-
4g
4f
=70
4e
4e-
4d
=71
4e-
4d
4e-
=72
16d
16B-
16F
16B-
16d
16B-
16f
16d
16b-
16f
16dd
16b-
=73
16f
16d
16b-
16f
16dd
16b-
16ff
16dd
16b-
16f
16dd
16b-
=74
16ff
16dd
16bb-
16ff
16dd
16b-
16ff
16dd
16bb-
16ff
16ddd
16bb-
=75
8fff
8ff
8bb-
8ddd
8fff
8f
=76
8b-
8dd
8ff
8F
8B-
8d
=77
8f
8b-
8dd
8ff
8ee-
8dd
=78
[2.cc
=79
2.cc_
=80
2.cc_
=81
2cc]
8ff
8ff
=82
8b-
8b-
8b
8cc
8cc#
8dd
=83
2.ee-
=84
2.g
=85
8b-
8a
8a
8g
8a
8cc
=86
8b-
8b-
8b
8cc
8cc#
8dd
=87
2.ee-
=88
2g
8a-
8b-
=89
*>A
*M3/4
8.cc
16f
4f
4r
=90
8.cc
16f
4f
4r
=91
4f
4f
4f
=92
2.g-
=93
4g-
4g-
4g-
=94
2.g
=95
8g
8f
16f
16g
16f
16e
8f
8g
=96
16e-
16f
16e-
16d
12e-
12f
12g
12a-
12b-
12cc
=97
12dd
12ee-
12ff
12ff#
12gg
12aa-
12aa
12bb-
12bb
=98
8.ccc
16ff
4ff
4r
=99
8.cc
16f
4f
4r
=100
4F
4F
4F
=101
2.G-
=102
4gg-
4gg-
4gg-
=103
2.gg
=104
8g
8f
16f
16g
16f
16e
8f
8g
=105
4e-
4r
4r
=106
8.eee-
16aa-
4aa-
4r
=107
8.ee-
16g
4g
4r
=108
16ee-
16f
8r
16ee-
16f
8r
16dd
16f
8r
=109
16ee-
16e-
8r
4r
4r
=110
4eee-
8aa-
8r
4r
=111
4ee-
8g
8r
4r
=112
16ee-
16f
8r
16ee-
16f
8r
16dd
16f
8r
=113
16e-
16f
16e-
16d
16e-
16f
16g
16a-
8b-
8g
=114
8f
8a-
8d
8f
8B-
8d
=115
16e-
16f
16e-
16d
16e-
16f
16g
16a-
16cc
16b-
16a-
16g
=116
8f
8a-
8d
8f
8B-
8d
=117
8e-
8g
8c
8e-
8A
8c
=118
8F
8A
8c
8e
8f
8A
=119
8B-
8d
8f
8a
8b-
8a
=120
8b-
8a
8b-
8a
8b-
8b-
=121
8.cc-
16f
4f
4r
=122
8.cc
16f
4f
4r
=123
4f
4f
4g-
=124
2.a-
=125
4ff
4ff
4gg-
=126
2.aa-
=127
4g
4g
4a-
=128
2.b-
=129
4gg
4gg
4aa-
=130
2.bb-
=131
4ddd-
4ee
4r
=132
4fff
4ff
4r
=133
4r
4r
8r
8ff
=134
4.bb-
16aa
16bb-
8ccc
8bb-
=135
4.ff
16gg
16ff
8ee-
8dd
=136
16ff#
16gg
8r
16ff#
16gg
8r
16dd
16ee-
8r
=137
16b
16cc
8r
4r
8r
8ccc
=138
4.eee-
16fff
16eee-
8ddd
8ccc
=139
8bb-
8aa
8gg
8ff
8ee-
8cc
=140
8b-
8dd
8g
8ee-
8a
8cc
=141
16b-
16d
16f
16e-
20d
20e-
20f
20g
20a
48b-
48a
48cc
48b-
48dd
48cc
48b-
48a
48g
48f
48g
48e-
=142
16d
16f
16e-
16d
16e-
16f
16g
16a
16b-
16a
16g
16f
=143
16g
16a
16b-
16cc
16dd
16cc
16b-
16a
16b-
16cc
16dd
16ee-
=144
16gg
16ff
16ee-
16dd
12ff
12ee-
12dd
16ee-
16ff
16gg
16aa
=145
4.bb-
16aa
16bb-
16aa
16bb-
16ccc
16bb-
=146
4.ff
16ee
16ff
16gg
16ff
16ee-
16dd
=147
16ff#
16gg
16ff#
16gg
16ff#
16gg
16ff#
16gg
16dd
16ee-
16dd
16ee-
=148
16b
16cc
16b
16cc
4r
8r
8ccc
=149
4.eee-
16ddd
16eee-
16fff
16eee-
16ddd
16ccc
=150
16bb-
16aa
16ddd
16ccc
16bb-
16aa
16gg
16ff
16ee-
16dd
16ee-
16cc[
=151
16cc]
16b-
8.dd
16g
8.ee-
16a
8cc
=152
8b-
8r
16G
16A
16B-
16c
16d
16e-
16f
16g
=153
2f
4e-
=154
16d
16r
8r
16g
16a
16b-
16cc
16dd
16ee-
16ff
16gg
=155
2ff
4ee-
=156
4dd
4cc
4b-
=157
4a-
4g
4f
=158
4e
4e-
4d
=159
4e-
4d
4e-
=160
16d
16B-
16F
16B-
16d
16B-
16f
16d
16b-
16f
16dd
16b-
=161
16f
16d
16b-
16f
16dd
16b-
16ff
16dd
16b-
16f
16dd
16b-
=162
16ff
16dd
16bb-
16ff
16dd
16b-
16ff
16dd
16bb-
16ff
16ddd
16bb-
=163
8fff
8ff
8bb-
8ddd
8fff
8f
=164
8b-
8dd
8ff
8F
8B-
8d
=165
8f
8b-
8dd
8ff
8ee-
8dd
=166
[2.cc
=167
2.cc_
=168
2.cc_
=169
2cc]
8ff
8ff
=170
8b-
8b-
8b
8cc
8cc#
8dd
=171
2.ee-
=172
2.g
=173
8b-
8a
8a
8g
8a
8cc
=174
8b-
8b-
8b
8cc
8cc#
8dd
=175
2.ee-
=176
2g
8a-
8b-
=177
*>B
8.cc
16f
4f
4r
=178
8.cc
16f
4f
4r
=179
4f
4f
4f
=180
2.f#
=181
4f#
4f#
4f#
=182
2.g
=183
4g
4g
4g
=184
4a
8.eee-
16aa
4aa
=185
4r
8.a-
16d
4d
=186
2.r
=187
2.r
=188
2.r
=189
8.ccc
16ff
4ff
4r
=190
8.cc
16e
4e
4r
=191
16cc
16d
8r
16cc
16d
8r
16b
16d
8r
=192
16cc
16c
8r
4r
4r
=193
4ccc
8ff
8r
4r
=194
4cc
8e
8r
4r
=195
16cc
16d
8r
16cc
16d
8r
16b
16d
8r
=196
8cc
8G
8G
8G
8G
8G
=197
8G
8G
8G
8G
8G
8G
=198
8G
8G
8G
8G
8G
8G
=199
8G
8G
8G
8G
8G
8G
=200
8G
8G
8G
8G
8G
8G
=201
8G
8G
8G
8G
8G
8G
=202
16r
8.r
16e
16c
16g
16e
16cc
16g
16ee
16cc
=203
2gg
4b-
=204
8a
8c
8c
8c
8c
8c
=205
8c
8c
8c
8c
8c
8c
=206
8c
8c
8c
8c
8c
8c
=207
8c
8c
8c
8c
8c
8c
=208
8c
8c
8c
8c
8c
8c
=209
8c
8c
8c
8c
8c
8c
=210
16r
16A
16f
16c
16a
16f
16cc
16a
16ff
16cc
16aa
16ff
=211
2ccc
4ee-
=212
16dd-
16f
16b-
16f
16dd-
16b-
16ff
16dd-
16bb-
16ff
16ddd-
16bb-
=213
2fff
4aa-
=214
16gg
16F
16e-
16B-
16g
16e-
16b-
16g
16ee-
16b-
16gg
16ee-
=215
2bb-
4dd-
=216
4cc
4r
4cc
=217
4ccc
4r
4cc
=218
4ccc
4r
4cc
=219
4ccc
4r
8r
8c
=220
8f
8a-
8cc
8r
4r
=221
8r
8c
8f
8a-
8cc
8r
=222
4r
8r
8c
8f
8a-
=223
8cc
8c
8f
8a-
8cc
8c
=224
8f
8a-
8cc
8c
8f
8a-
=225
8.cc
16f
4f
4r
=226
8.cc
16f
4f
4r
=227
4f
4f
4f
=228
2.g-
=229
4g-
4g-
4g-
=230
2.g
=231
8g
8f
16f
16g
16f
16e
8f
8g
=232
16e-
16f
16e-
16d
12e-
12f
12g
12a-
12b-
12cc
=233
12dd
12ee-
12ff
12ff#
12gg
12aa-
12aa
12bb-
12bb
=234
8.ccc
16ff
4ff
4r
=235
8.cc
16f
4f
4r
=236
4F
4F
4F
=237
2.G-
=238
4gg-
4gg-
4gg-
=239
2.gg
=240
8g
8f
16f
16g
16f
16e
8f
8g
=241
4e-
4r
4r
=242
8.eee-
16aa-
4aa-
4r
=243
8.ee-
16g
4g
4r
=244
16ee-
16f
8r
16ee-
16f
8r
16dd
16f
8r
=245
16ee-
16e-
8r
4r
4r
=246
16r
16eee-
16ddd
16eee-
16ddd
16eee-
16fff
16eee-
4aa-
=247
16r
16ee-
16dd
16ee-
16dd
16ee-
16ff
16ee-
4g
=248
16r
16f
16dd
16ee-
16r
16f
16dd
16ee-
16r
16f
16cc#
16dd
=249
16ee-
16f
16e-
16d
16e-
16f
16g
16a-
8b-
8g
=250
8f
8a-
8d
8f
8B-
8d
=251
16e-
16f
16e-
16d
16e-
16f
16g
16a-
16cc
16b-
16a-
16g
=252
8f
8a-
8d
8f
8B-
8d
=253
8e-
8g
8c
8e-
8A
8c
=254
8F
8A
8c
8e
8f
8A
=255
8B-
8d
8f
8a
8b-
8dd
=256
8ff
8aa
4bb-
4r
=257
4r
4r
8r
8bb-
=258
4.eee-
16ddd
16eee-
8fff
8eee-
=259
4.bb-
16ccc
16bb-
8aa-
8gg
=260
16bb
16ccc
8r
16bb
16ccc
8r
16gg
16aa-
8r
=261
16ee
16ff
8r
4r
8r
8ff
=262
4.aa-
16bb-
16aa-
8gg
8ff
=263
8ee-
8dd
8cc
8b-
8a-
8f
=264
8e-
8g
8c
8a-
8d
8f
=265
16e-
16G
16B-
16A-
20G
20A-
20B-
20c
20d
48e-
48d
48f
48e-
48g
48f
48e-
48d
48c
48B-
48c
48A-
=266
16G
16B-
16A-
16G
16A-
16B-
16c
16d
16e-
16d
16c
16B-
=267
16c
16d
16e-
16f
16g
16f
16e-
16d
16e-
16f
16g
16a-
=268
16cc
16b-
16a-
16g
16a-
16b-
16cc
16dd
16ee-
16dd
16cc
16b-
=269
16cc
16dd
16ee-
16ff
16gg
16ff
16ee-
16dd
16ee-
16ff
16gg
16aa-
=270
16ccc
16bb-
16aa-
16gg
12bb-
12aa-
12gg
16aa-
16bb-
16ccc
16ddd
=271
4.eee-
16ddd
16eee-
16ddd
16eee-
16fff
16eee-
=272
4.bb-
16aa
16bb-
16ccc
16bb-
16aa-
16gg
=273
16bb
16ccc
16bb
16ccc
16bb
16ccc
16bb
16ccc
16gg
16aa-
16gg
16aa-
=274
16ee
16ff
16ee
16ff
4r
8r
8ff
=275
4.aa-
16gg
16aa-
16bb-
16aa-
16gg
16ff
=276
16ee-
16dd
16gg
16ff
16ee-
16dd
16cc
16b-
16a-
16g
16a-
16f[
=277
16f]
16e-
8.g
16c
8.a-
16d
8f
=278
8e-
8r
16c
16d
16e-
16f
16g
16a-
16b-
16cc
=279
2b-
4a-
=280
16g
16r
8r
16cc
16dd
16ee-
16ff
16gg
16aa-
16bb-
16ccc
=281
2bb-
4aa-
=282
4gg
4ff
4ee-
=283
4dd-
4cc
4b-
=284
4a
4a-
4g
=285
4f
4e-
4d-
=286
4c
4B-
4A
=287
4A-
4G
4a-
=288
4g
4A-
4G
=289
4a-
4g
4A-
=290
4r
4r
16e-
16B-
16g
16e-
=291
16B-
16G
16e-
16B-
16g
16e-
16b-
16g
16e-
16B-
16g
16e-
=292
16b-
16g
16ee-
16b-
16g
16e-
16b-
16g
16ee-
16b-
16gg
16ee-
=293
8bb-
8b-
8ee-
8gg
8bb-
8B-
=294
8e-
8g
8b-
4r
8r
=295
8B-
8e-
8g
8b-
8ee-
8gg
=296
8bb-
8aa
8ccc
8bb-
8aa-
8gg
=297
[2.ff
=298
2.ff_
=299
2.ff_
=300
2ff]
8bb-
8bb-
=301
8ee-
8ee-
8ee
8ff
8ff#
8gg
=302
2.aa-
=303
2.cc
=304
8ee-
8dd
8dd
8cc
8dd
8ff
=305
8ee-
8e-
8e
8f
8f#
8g
=306
2.a-
=307
2c
8d-
8e-
=308
8.f
16B-
4B-
4r
=309
8.f
16B-
4B-
4r
=310
2.r
=311
2.r
=312
4cc-
4cc-
4cc-
=313
2.cc
=314
4r
4r
4dd-
=315
4dd
4r
4r
=316
4r
4ee-
4g-
=317
4ee
4r
4e
=318
4f
4f
4f
=319
2.g-
=320
4gg-
4gg-
4gg-
=321
2.gg
=322
8g
8f
16f
16g
16f
16e
8f
8g
=323
16e-
16f
16e-
16d
16e-
16e
16f
16f#
16g
16a-
16a
16b-
=324
16b
16cc
16cc#
16dd
16ee-
16ee
16ff
16ff#
20gg
20aa-
20aa
20bb-
20bb
=325
8.ccc
16ff
4ff
4r
=326
8.cc
16f
4f
4r
=327
4F
4F
4F
=328
2.G-
=329
4gg-
4gg-
4gg-
=330
4gg
4r
4ff#
=331
4gg
4r
4ff#
=332
4gg[
16gg]
16aa-
16bb-
16gg
16ee
16ff
16gg
16ee-
=333
16cc#
16dd
16ee-
16cc
16a
16b-
16cc
16a-
16f#
16g
16a-
16f
=334
4e-
4r
4r
=335
16b-
16cc
16b-
16a
16b-
16cc
16dd
16ee-
8ff
8a-
=336
4g
4r
4r
=337
16bb-
16ccc
16bb-
16aa
16bb-
16ccc
16ddd
16eee-
16fff
16ddd
16bb-
16aa-
=338
4gg
8r
8e-
8B-
8g
=339
8e-
8b-
8g
8ee-
8b-
8gg
=340
8ee-
8bb-
8gg
8eee-
4dd
=341
4ee-
4r
4r
==
*-
